packages/tokens/icons/fullView/size16Px.svg

<svg viewBox="0 0 16 16" fill="none" xmlns="http://www.w3.org/2000/svg" width="1em" height="1em"><rect x="1.5" y="1.5" width="13" height="13" rx="1.5" stroke="currentColor"/><path d="M1.5 11C1.5 10.7239 1.72386 10.5 2 10.5H5C5.27614 10.5 5.5 10.7239 5.5 11L5.5 14C5.5 14.2761 5.27614 14.5 5 14.5H3C2.17157 14.5 1.5 13.8284 1.5 13L1.5 11Z" stroke="currentColor"/><path d="M7.5 8.49976L11.5 4.49976" stroke="currentColor" stroke-linecap="round" stroke-linejoin="round"/><path d="M8.5 4.5L11.5 4.5V7.5" stroke="currentColor" stroke-linecap="round" stroke-linejoin="round"/></svg>

<svg xmlns="http://www.w3.org/2000/svg" fill="none" viewBox="0 0 16 16" width="1em" height="1em"><rect width="13" height="13" x="1.5" y="1.5" stroke="currentColor" rx="1.5"/><path stroke="currentColor" d="M1.5 11a.5.5 0 0 1 .5-.5h3a.5.5 0 0 1 .5.5v3a.5.5 0 0 1-.5.5H3A1.5 1.5 0 0 1 1.5 13v-2Z"/><path stroke="currentColor" stroke-linecap="round" stroke-linejoin="round" d="m7.5 8.5 4-4m-3 0h3v3"/></svg>
